Sources/FrostedUI/Resources/Icons.xcassets/compassFilled32.imageset/compass-filled-32.svg

<svg width="32" height="32" viewBox="0 0 32 32" fill="none" xmlns="http://www.w3.org/2000/svg" data-fui-icon="true">
  <path
    d="M16 1.91699C23.7777 1.91719 30.0838 8.22226 30.084 16C30.0838 23.7777 23.7777 30.0838 16 30.084C8.22226 30.0838 1.91719 23.7777 1.91699 16C1.91717 8.22225 8.22225 1.91717 16 1.91699ZM22.5791 11.6768C23.114 10.2662 21.7328 8.88488 20.3223 9.41992L13.9961 11.8193C12.9928 12.1999 12.1999 12.9928 11.8193 13.9961L9.41992 20.3223C8.88488 21.7328 10.2662 23.114 11.6768 22.5791L18.0039 20.1797C19.007 19.7991 19.7991 19.007 20.1797 18.0039L22.5791 11.6768Z"
    fill="currentColor"
  />
</svg>

<svg xmlns="http://www.w3.org/2000/svg" width="32" height="32" fill="none" data-fui-icon="true" viewBox="0 0 32 32"><path fill="currentColor" d="M16 1.917c7.778 0 14.084 6.305 14.084 14.083S23.778 30.084 16 30.084 1.917 23.778 1.917 16 8.222 1.917 16 1.917m6.58 9.76c.534-1.41-.847-2.792-2.258-2.257l-6.326 2.4a3.75 3.75 0 0 0-2.177 2.176l-2.4 6.326c-.534 1.41.847 2.792 2.258 2.257l6.327-2.4a3.75 3.75 0 0 0 2.176-2.175z"/></svg>
